X:8
T:Lord Drummond
R:reel
O:19th century Scotland
B:Kerrs Merry Melodies
D:Allie Bennett, It's About Time
Z:Paul Stewart Cranford (P.S.C.), <http://www.cranfordpub.com>
L:1/8
M:C|
Q:333
K:D
B|AddA B2 Af|edef gefd|AddA B2 AF|EDEF D/D/D D:|
|:f|abaf de f2|egfd efge|abaf egfe dBAF D/D/D D:|
